<?xml version="1.0" encoding="UTF-8"?>
<map version="1.9" tiledversion="1.9.2" orientation="orthogonal" renderorder="right-down" width="40" height="20" tilewidth="16" tileheight="16" infinite="0" nextlayerid="14" nextobjectid="126">
 <tileset firstgid="1" name="tileset" tilewidth="16" tileheight="16" tilecount="256" columns="16">
  <image source="../assets/tileset.png" width="256" height="256"/>
 </tileset>
 <tileset firstgid="257" name="door" tilewidth="48" tileheight="40" tilecount="1" columns="1">
  <image source="../assets/door.png" width="48" height="40"/>
 </tileset>
 <tileset firstgid="258" name="crates" tilewidth="24" tileheight="24" tilecount="8" columns="0">
  <grid orientation="orthogonal" width="1" height="1"/>
  <tile id="0">
   <image width="24" height="24" source="../assets/crates/blue_crate.png"/>
  </tile>
  <tile id="1">
   <image width="16" height="16" source="../assets/crates/blue_small_crate.png"/>
  </tile>
  <tile id="2">
   <image width="24" height="24" source="../assets/crates/green_crate.png"/>
  </tile>
  <tile id="3">
   <image width="16" height="16" source="../assets/crates/green_small_crate.png"/>
  </tile>
  <tile id="4">
   <image width="24" height="24" source="../assets/crates/grey_crate.png"/>
  </tile>
  <tile id="5">
   <image width="16" height="16" source="../assets/crates/grey_small_crate.png"/>
  </tile>
  <tile id="6">
   <image width="24" height="24" source="../assets/crates/red_crate.png"/>
  </tile>
  <tile id="7">
   <image width="16" height="16" source="../assets/crates/red_small_crate.png"/>
  </tile>
 </tileset>
 <tileset firstgid="266" name="platforms" tilewidth="48" tileheight="16" tilecount="7" columns="0">
  <grid orientation="orthogonal" width="1" height="1"/>
  <tile id="0">
   <image width="48" height="16" source="../assets/platforms/0.png"/>
  </tile>
  <tile id="1">
   <image width="48" height="16" source="../assets/platforms/1.png"/>
  </tile>
  <tile id="2">
   <image width="48" height="16" source="../assets/platforms/2.png"/>
  </tile>
  <tile id="3">
   <image width="24" height="16" source="../assets/platforms/3.png"/>
  </tile>
  <tile id="4">
   <image width="24" height="16" source="../assets/platforms/4.png"/>
  </tile>
  <tile id="7">
   <image width="16" height="16" source="../assets/platforms/5.png"/>
  </tile>
  <tile id="8">
   <image width="16" height="16" source="../assets/platforms/6.png"/>
  </tile>
 </tileset>
 <tileset firstgid="275" name="ladder" tilewidth="16" tileheight="16" tilecount="1" columns="1">
  <image source="../assets/ladder.png" width="16" height="16"/>
 </tileset>
 <tileset firstgid="276" name="buttons" tilewidth="16" tileheight="16" tilecount="2" columns="0">
  <grid orientation="orthogonal" width="1" height="1"/>
  <tile id="1">
   <image width="16" height="16" source="../assets/triggers/button-0.png"/>
  </tile>
  <tile id="2">
   <image width="16" height="16" source="../assets/triggers/on.png"/>
  </tile>
 </tileset>
 <tileset firstgid="279" name="lasers" tilewidth="8" tileheight="48" tilecount="1" columns="0">
  <grid orientation="orthogonal" width="1" height="1"/>
  <tile id="0">
   <image width="8" height="48" source="../assets/lasers/0.png"/>
  </tile>
 </tileset>
 <tileset firstgid="280" name="barriers" tilewidth="12" tileheight="48" tilecount="1" columns="0">
  <grid orientation="orthogonal" width="1" height="1"/>
  <tile id="0">
   <image width="12" height="48" source="../assets/barriers/0.png"/>
  </tile>
 </tileset>
 <tileset firstgid="281" name="barrel" tilewidth="16" tileheight="16" tilecount="1" columns="1">
  <image source="../assets/barrel.png" width="16" height="20"/>
 </tileset>
 <tileset firstgid="282" name="tiles" tilewidth="16" tileheight="16" tilecount="72" columns="6">
  <image source="../assets/tiles.png" width="96" height="192"/>
 </tileset>
 <tileset firstgid="354" name="items" tilewidth="25" tileheight="16" tilecount="6" columns="0">
  <grid orientation="orthogonal" width="1" height="1"/>
  <tile id="0">
   <image width="12" height="16" source="../assets/items/adrenaline.png"/>
  </tile>
  <tile id="1">
   <image width="16" height="16" source="../assets/items/invulnerability.png"/>
  </tile>
  <tile id="2">
   <image width="16" height="16" source="../assets/items/jacket.png"/>
  </tile>
  <tile id="3">
   <image width="24" height="10" source="../assets/items/machine_gun_item.png"/>
  </tile>
  <tile id="4">
   <image width="16" height="10" source="../assets/items/medkit.png"/>
  </tile>
  <tile id="5">
   <image width="25" height="10" source="../assets/items/railgun_item.png"/>
  </tile>
 </tileset>
 <layer id="1" name="Background" width="40" height="20">
  <data encoding="csv">
115,115,115,115,115,115,115,115,115,115,115,115,115,115,115,115,115,115,115,115,115,115,115,115,115,115,115,115,115,115,115,115,115,115,115,115,115,115,115,115,
115,115,115,115,115,115,115,115,115,115,115,115,115,115,115,115,115,115,115,115,115,115,115,115,115,115,115,115,115,115,115,115,115,115,115,115,115,115,115,115,
115,115,115,115,115,115,115,115,115,115,115,115,115,115,115,115,115,115,115,115,115,115,115,115,115,115,115,115,115,115,115,115,115,115,115,115,115,115,115,115,
115,115,115,115,115,115,115,115,115,115,115,115,115,115,115,115,115,115,115,115,115,115,115,115,115,115,115,115,115,115,115,115,115,115,115,115,115,115,115,115,
115,115,115,115,115,115,115,115,115,115,115,115,115,115,115,115,115,115,115,115,115,115,115,115,115,115,115,115,115,115,115,115,115,115,115,115,115,115,115,115,
115,115,115,115,115,115,115,115,115,115,115,115,115,115,115,115,115,115,115,115,115,115,115,115,115,115,115,115,115,115,115,115,115,115,115,115,115,115,115,115,
118,118,118,118,118,118,118,118,118,118,118,118,118,118,118,118,118,118,118,118,118,118,118,118,118,118,118,118,118,118,118,118,118,118,118,118,118,118,118,118,
118,118,118,118,118,118,118,118,118,118,118,118,118,118,118,118,118,118,118,118,118,118,118,118,118,118,118,118,118,118,118,118,118,118,118,118,118,118,118,118,
138,139,140,141,142,138,139,140,141,142,138,139,140,141,142,138,139,140,141,142,138,139,140,141,142,138,139,140,141,142,138,139,140,141,142,138,139,140,141,142,
154,155,156,157,158,154,155,156,157,158,154,155,156,157,158,154,155,156,157,158,154,155,156,157,158,154,155,156,157,158,154,155,156,157,158,154,155,156,157,158,
185,185,185,185,185,185,185,185,185,185,185,185,185,185,185,185,185,185,185,185,185,185,185,185,185,185,185,185,185,185,185,185,185,185,185,185,185,185,185,185,
185,185,185,185,185,185,185,185,185,185,185,185,185,185,185,185,185,185,185,185,185,185,185,185,185,185,185,185,185,185,185,185,185,185,185,185,185,185,185,185,
185,185,185,185,185,185,185,185,185,185,185,185,185,185,185,185,185,185,185,185,185,185,185,185,185,185,185,185,185,185,185,185,185,185,185,185,185,185,185,185,
185,185,185,185,185,185,185,185,185,185,185,185,185,185,185,185,185,185,185,185,185,185,185,185,185,185,185,185,185,185,185,185,185,185,185,185,185,185,185,185,
185,185,185,185,185,185,185,185,185,185,185,185,185,185,185,185,185,185,185,185,185,185,185,185,185,185,185,185,185,185,185,185,185,185,185,185,185,185,185,185,
185,185,185,185,185,185,185,185,185,185,185,185,185,185,185,185,185,185,185,185,185,185,185,185,185,185,185,185,185,185,185,185,185,185,185,185,185,185,185,185,
185,185,185,185,185,185,185,185,185,185,185,185,185,185,185,185,185,185,185,185,185,185,185,185,185,185,185,185,185,185,185,185,185,185,185,185,185,185,185,185,
185,185,185,185,185,185,185,185,185,185,185,185,185,185,185,185,185,185,185,185,185,185,185,185,185,185,185,185,185,185,185,185,185,185,185,185,185,185,185,185,
185,185,185,185,185,185,185,185,185,185,185,185,185,185,185,185,185,185,185,185,185,185,185,185,185,185,185,185,185,185,185,185,185,185,185,185,185,185,185,185,
185,185,185,185,185,185,185,185,185,185,185,185,185,185,185,185,185,185,185,185,185,185,185,185,185,185,185,185,185,185,185,185,185,185,185,185,185,185,185,185
</data>
 </layer>
 <layer id="2" name="Platforms" width="40" height="20">
  <data encoding="csv">
0,0,0,0,0,0,0,0,0,0,298,352,352,352,352,352,352,352,352,352,352,352,352,352,352,316,316,0,0,0,0,0,0,0,0,0,0,111,111,111,
0,0,0,0,0,0,0,0,0,0,293,0,0,0,0,0,0,0,0,0,0,0,0,0,0,0,0,0,0,0,0,0,0,0,0,0,0,111,111,111,
0,0,0,0,0,0,0,0,0,0,293,0,0,0,0,0,0,0,0,0,0,0,0,0,0,0,0,0,0,0,0,0,0,0,0,0,0,111,111,111,
0,0,0,0,0,0,0,0,0,0,290,322,322,322,286,286,286,283,322,322,319,319,283,283,283,283,283,0,0,0,0,0,0,0,0,0,0,0,0,0,
0,0,0,0,0,0,0,0,0,0,0,0,0,0,0,0,0,0,0,0,0,0,0,0,0,0,0,0,0,0,0,0,0,0,0,0,0,0,0,0,
286,286,286,0,0,0,0,0,0,0,0,0,0,0,0,0,0,0,0,0,0,0,0,0,0,0,0,0,0,0,0,0,0,0,0,0,0,0,0,0,
0,0,0,0,0,0,0,0,0,0,0,0,0,0,0,0,0,0,0,0,0,0,0,0,0,0,0,0,0,0,0,0,0,0,0,0,0,0,0,0,
0,0,0,0,0,0,0,0,0,0,0,0,0,0,0,0,0,0,0,0,0,0,0,0,0,0,0,0,0,0,0,0,0,0,0,0,0,0,0,0,
0,0,0,0,0,0,0,0,0,0,0,0,0,0,0,0,0,0,0,0,0,0,0,0,0,0,0,0,0,0,0,0,0,0,0,0,0,0,0,0,
0,0,0,0,0,0,0,0,0,0,0,0,0,0,0,0,0,0,0,0,0,0,0,0,0,0,0,0,0,0,0,0,0,0,0,0,0,0,0,0,
0,0,0,0,0,0,0,0,0,0,0,0,0,0,0,0,0,0,0,0,0,0,0,0,0,0,0,0,0,0,0,0,0,0,0,0,0,0,0,0,
0,0,0,0,0,0,0,0,0,0,0,0,0,0,0,0,0,0,0,0,0,0,0,0,0,0,0,0,0,0,0,0,0,0,0,0,0,0,0,0,
127,127,127,127,127,0,0,0,0,0,0,0,0,0,0,0,0,0,0,0,0,0,0,127,0,127,127,127,127,0,0,0,0,0,0,0,0,0,0,0,
0,0,0,0,0,0,0,0,127,127,127,127,127,127,127,0,0,0,0,0,0,0,0,0,0,0,0,0,0,0,0,0,0,0,0,0,0,0,0,0,
0,0,0,0,0,0,0,0,0,0,0,0,0,0,0,0,0,0,0,0,0,0,0,0,0,0,0,0,0,0,0,0,0,0,0,0,0,0,0,0,
0,0,0,0,0,0,0,0,0,0,0,0,0,0,0,0,0,127,127,127,127,127,0,0,0,0,0,0,0,0,0,0,0,0,0,0,0,0,0,0,
0,0,0,0,0,0,0,0,0,0,0,0,0,0,0,0,0,111,0,0,0,0,0,0,0,0,0,0,0,0,0,0,0,0,0,0,0,0,0,0,
0,0,0,0,0,0,0,0,0,0,0,0,0,0,0,0,0,111,0,0,0,0,0,0,0,0,0,0,0,0,0,0,0,0,0,0,0,0,0,0,
127,127,127,127,127,127,127,127,127,127,127,127,127,127,127,127,127,127,127,127,127,127,127,127,127,127,127,127,127,127,127,127,127,127,127,127,127,127,127,127,
111,111,111,111,111,111,111,111,111,111,111,111,111,111,111,111,111,111,111,111,111,111,111,111,111,111,111,111,111,111,111,111,111,111,111,111,111,111,111,111
</data>
 </layer>
 <layer id="4" name="Doors" width="40" height="20">
  <data encoding="csv">
0,0,0,0,0,0,0,0,0,0,0,0,0,0,0,0,0,0,0,0,0,0,0,0,0,0,0,0,0,0,0,0,0,0,0,0,0,0,0,0,
0,0,0,0,0,0,0,0,0,0,0,0,0,0,0,0,0,0,0,0,0,0,0,0,0,0,0,0,0,0,0,0,0,0,0,0,0,0,0,0,
0,0,0,0,0,0,0,0,0,0,0,0,0,0,0,0,0,0,0,0,0,0,0,0,0,0,0,0,0,0,0,0,0,0,0,0,0,0,0,0,
0,0,0,0,0,0,0,0,0,0,0,0,0,0,0,0,0,0,0,0,0,0,0,0,0,0,0,0,0,0,0,0,0,0,0,0,0,0,0,0,
257,0,0,0,0,0,0,0,0,0,0,0,0,0,0,0,0,0,0,0,0,0,0,0,0,0,0,0,0,0,0,0,0,0,0,0,0,0,0,0,
0,0,0,0,0,0,0,0,0,0,0,0,0,0,0,0,0,0,0,0,0,0,0,0,0,0,0,0,0,0,0,0,0,0,0,0,0,0,0,0,
0,0,0,0,0,0,0,0,0,0,0,0,0,0,0,0,0,0,0,0,0,0,0,0,0,0,0,0,0,0,0,0,0,0,0,0,0,0,0,0,
0,0,0,0,0,0,0,0,0,0,0,0,0,0,0,0,0,0,0,0,0,0,0,0,0,0,0,0,0,0,0,0,0,0,0,0,0,0,0,0,
0,0,0,0,0,0,0,0,0,0,0,0,0,0,0,0,0,0,0,0,0,0,0,0,0,0,0,0,0,0,0,0,0,0,0,0,0,0,0,0,
0,0,0,0,0,0,0,0,0,0,0,0,0,0,0,0,0,0,0,0,0,0,0,0,0,0,0,0,0,0,0,0,0,0,0,0,0,0,0,0,
0,0,0,0,0,0,0,0,0,0,0,0,0,0,0,0,0,0,0,0,0,0,0,0,0,0,0,0,0,0,0,0,0,0,0,0,0,0,0,0,
0,0,0,0,0,0,0,0,0,0,0,0,0,0,0,0,0,0,0,0,0,0,0,0,0,0,0,0,0,0,0,0,0,0,0,0,0,0,0,0,
0,0,0,0,0,0,0,0,0,0,0,0,0,0,0,0,0,0,0,0,0,0,0,0,0,0,0,0,0,0,0,0,0,0,0,0,0,0,0,0,
0,0,0,0,0,0,0,0,0,0,0,0,0,0,0,0,0,0,0,0,0,0,0,0,0,0,0,0,0,0,0,0,0,0,0,0,0,0,0,0,
0,0,0,0,0,0,0,0,0,0,0,0,0,0,0,0,0,0,0,0,0,0,0,0,0,0,0,0,0,0,0,0,0,0,0,0,0,0,0,0,
0,0,0,0,0,0,0,0,0,0,0,0,0,0,0,0,0,0,0,0,0,0,0,0,0,0,0,0,0,0,0,0,0,0,0,0,0,0,0,0,
0,0,0,0,0,0,0,0,0,0,0,0,0,0,0,0,0,0,0,0,0,0,0,0,0,0,0,0,0,0,0,0,0,0,0,0,0,0,0,0,
0,0,0,0,257,0,0,0,0,0,0,0,0,0,0,0,0,0,0,0,0,0,0,0,0,0,0,0,0,0,0,0,0,0,0,0,0,0,0,0,
0,0,0,0,0,0,0,0,0,0,0,0,0,0,0,0,0,0,0,0,0,0,0,0,0,0,0,0,0,0,0,0,0,0,0,0,0,0,0,0,
0,0,0,0,0,0,0,0,0,0,0,0,0,0,0,0,0,0,0,0,0,0,0,0,0,0,0,0,0,0,0,0,0,0,0,0,0,0,0,0
</data>
 </layer>
 <layer id="9" name="Ladder" width="40" height="20">
  <data encoding="csv">
0,0,0,0,0,0,0,0,0,0,0,0,0,0,0,0,0,0,0,0,0,0,0,0,0,0,0,0,0,0,0,0,0,0,0,0,0,0,0,0,
0,0,0,0,0,0,0,0,0,0,0,0,0,0,0,0,0,0,0,0,0,0,0,0,0,0,0,0,0,0,0,0,0,0,0,0,0,0,0,0,
0,0,0,0,0,0,0,0,0,0,0,0,0,0,0,0,0,0,0,0,0,0,0,0,0,0,0,0,0,0,0,0,0,0,0,0,0,0,0,0,
0,0,0,0,0,0,0,0,0,0,0,0,0,0,0,0,0,0,0,0,0,0,0,0,0,0,0,0,0,0,0,0,0,0,0,0,0,0,0,0,
0,0,0,0,0,0,0,0,0,0,0,0,0,0,0,0,0,0,0,0,0,0,0,0,0,0,0,0,0,0,0,0,0,0,0,0,0,0,0,0,
0,0,0,0,0,0,0,0,0,0,0,0,0,0,0,0,0,0,0,0,0,0,0,0,0,0,0,0,0,0,0,0,0,0,0,0,0,0,0,0,
0,0,0,0,0,0,0,0,0,0,0,0,0,0,0,0,0,0,0,0,0,0,0,0,0,0,0,0,0,0,0,0,0,0,0,0,0,0,0,0,
0,0,0,0,0,0,0,0,0,0,0,0,0,0,0,0,0,0,0,0,0,0,0,0,0,0,0,0,0,0,0,0,0,0,0,0,0,0,0,0,
0,0,0,0,0,0,0,0,0,0,0,0,0,0,0,0,0,0,0,0,0,0,0,0,275,0,0,0,0,0,0,0,0,0,0,0,0,0,0,0,
0,0,0,0,0,0,0,0,0,0,0,0,0,0,0,0,0,0,0,0,0,0,0,0,275,0,0,0,0,0,0,0,0,0,0,0,0,0,0,0,
0,0,0,0,0,0,0,0,0,0,0,0,0,0,0,0,0,0,0,0,0,0,0,0,275,0,0,0,0,0,0,0,0,0,0,0,0,0,0,0,
0,0,0,0,0,0,0,0,0,0,0,0,0,0,0,0,0,0,0,0,0,0,0,0,275,0,0,0,0,0,0,0,0,0,0,0,0,0,0,0,
0,0,0,0,0,0,0,0,0,0,0,0,0,0,0,0,0,0,0,0,0,0,0,0,275,0,0,0,0,0,0,0,0,0,0,0,0,0,275,0,
0,0,0,0,0,0,0,0,0,0,0,0,0,0,0,0,0,0,0,0,0,0,0,0,275,0,0,0,0,0,0,0,0,0,0,0,0,0,275,0,
0,0,0,0,0,0,0,0,0,0,0,0,0,0,0,0,0,0,0,0,0,0,0,0,275,0,0,0,0,0,0,0,0,0,0,0,0,0,275,0,
0,0,0,0,0,0,0,0,0,0,0,0,0,0,0,0,0,0,0,0,0,0,0,0,275,0,0,0,0,0,0,0,0,0,0,0,0,0,275,0,
0,0,0,0,0,0,0,0,0,0,0,0,0,0,0,0,0,0,0,0,0,0,0,0,275,0,0,0,0,0,0,0,0,0,0,0,0,0,275,0,
0,0,0,0,0,0,0,0,0,0,0,0,0,0,0,0,0,0,0,0,0,0,0,0,275,0,0,0,0,0,0,0,0,0,0,0,0,0,275,0,
0,0,0,0,0,0,0,0,0,0,0,0,0,0,0,0,0,0,0,0,0,0,0,0,0,0,0,0,0,0,0,0,0,0,0,0,0,0,0,0,
0,0,0,0,0,0,0,0,0,0,0,0,0,0,0,0,0,0,0,0,0,0,0,0,0,0,0,0,0,0,0,0,0,0,0,0,0,0,0,0
</data>
 </layer>
 <objectgroup id="5" name="Doors">
  <object id="4" x="63.2114" y="248.25" width="49.25" height="39.75">
   <properties>
    <property name="Destiny" value="map1"/>
    <property name="Origin" value="map2"/>
   </properties>
  </object>
  <object id="118" x="0.205738" y="39.9944" width="49.25" height="39.75">
   <properties>
    <property name="Destiny" value="map3"/>
    <property name="Id" value="door_upper_left"/>
    <property name="Origin" value="map2"/>
   </properties>
  </object>
 </objectgroup>
 <objectgroup id="6" name="Enemies">
  <object id="5" x="566.636" y="268.939">
   <properties>
    <property name="Type" value="Guard"/>
   </properties>
   <point/>
  </object>
  <object id="13" x="150" y="203">
   <properties>
    <property name="Type" value="Guard"/>
   </properties>
   <point/>
  </object>
  <object id="120" x="345.55" y="44.9123">
   <properties>
    <property name="Type" value="gladiator"/>
   </properties>
   <point/>
  </object>
 </objectgroup>
 <objectgroup id="7" name="Objects">
  <object id="6" gid="258" x="400" y="288" width="24" height="24"/>
  <object id="8" gid="264" x="400" y="192" width="24" height="24">
   <properties>
    <property name="Loot" value="life"/>
   </properties>
  </object>
  <object id="9" gid="263" x="208" y="208" width="16" height="16"/>
  <object id="10" gid="262" x="0" y="192" width="24" height="24"/>
  <object id="43" gid="259" x="288" y="288" width="16" height="16">
   <properties>
    <property name="Loot" value="life"/>
   </properties>
  </object>
  <object id="44" gid="260" x="288" y="240" width="24" height="24"/>
  <object id="49" gid="262" x="560" y="192" width="24" height="24"/>
  <object id="117" gid="260" x="176" y="48" width="24" height="24">
   <properties>
    <property name="loot" value="life"/>
   </properties>
  </object>
 </objectgroup>
 <objectgroup id="11" name="Barrels">
  <object id="52" gid="281" x="192" y="288" width="16" height="16"/>
  <object id="53" gid="281" x="208" y="288" width="16" height="16"/>
 </objectgroup>
 <objectgroup id="8" name="Platforms">
  <object id="18" x="176" y="144" width="48" height="16">
   <properties>
    <property name="stop" value="1"/>
   </properties>
  </object>
  <object id="19" x="48" y="144" width="48" height="16">
   <properties>
    <property name="stop" value="2"/>
   </properties>
  </object>
  <object id="24" gid="266" x="464" y="288" width="48" height="16">
   <properties>
    <property name="Pause" value="0.9"/>
    <property name="Speed" value="40"/>
    <property name="Type" value="elevator"/>
   </properties>
  </object>
  <object id="25" x="464" y="192" width="48" height="16">
   <properties>
    <property name="floor" value="1"/>
   </properties>
  </object>
  <object id="26" x="464" y="96" width="48" height="16">
   <properties>
    <property name="floor" value="2"/>
   </properties>
  </object>
  <object id="29" gid="267" x="592" y="208" width="48" height="16"/>
  <object id="30" gid="267" x="544" y="208" width="48" height="16"/>
  <object id="31" gid="267" x="592" y="112" width="48" height="16"/>
  <object id="32" gid="267" x="544" y="112" width="48" height="16"/>
  <object id="35" gid="273" x="528" y="208" width="16" height="16"/>
  <object id="36" gid="273" x="528" y="112" width="16" height="16"/>
  <object id="39" gid="266" x="304" y="160" width="48" height="16">
   <properties>
    <property name="Pause" value="0.9"/>
    <property name="Speed" value="45"/>
    <property name="Type" value="horizontal"/>
   </properties>
  </object>
  <object id="119" gid="270" x="48" y="96" width="24" height="16"/>
 </objectgroup>
 <objectgroup id="10" name="Triggers">
  <object id="42" gid="277" x="352" y="208" width="16" height="16">
   <properties>
    <property name="door" value="one"/>
   </properties>
  </object>
  <object id="46" gid="277" x="624" y="160" width="16" height="16">
   <properties>
    <property name="door" value="two"/>
   </properties>
  </object>
  <object id="47" gid="279" x="592" y="96" width="8" height="48">
   <properties>
    <property name="door" value="two"/>
   </properties>
  </object>
  <object id="51" gid="280" x="352" y="288" width="12" height="48">
   <properties>
    <property name="door" value="one"/>
   </properties>
  </object>
 </objectgroup>
 <objectgroup id="13" name="Items">
  <object id="121" gid="357" x="224" y="48" width="24" height="10"/>
  <object id="122" gid="355" x="144" y="288" width="16" height="16"/>
  <object id="123" gid="358" x="32" y="192" width="16" height="10"/>
  <object id="125" gid="356" x="608" y="96" width="16" height="16"/>
 </objectgroup>
 <objectgroup id="12" name="Secret">
  <object id="101" gid="310" x="176" y="32" width="16" height="16"/>
  <object id="102" gid="310" x="176" y="48" width="16" height="16"/>
  <object id="103" gid="310" x="192" y="48" width="16" height="16"/>
  <object id="104" gid="310" x="192" y="32" width="16" height="16"/>
  <object id="105" gid="310" x="208" y="32" width="16" height="16"/>
  <object id="106" gid="310" x="208" y="48" width="16" height="16"/>
  <object id="107" gid="310" x="224" y="48" width="16" height="16"/>
  <object id="108" gid="310" x="224" y="32" width="16" height="16"/>
  <object id="109" gid="310" x="240" y="32" width="16" height="16"/>
  <object id="110" gid="310" x="240" y="48" width="16" height="16"/>
  <object id="111" gid="310" x="256" y="48" width="16" height="16"/>
  <object id="112" gid="310" x="256" y="32" width="16" height="16"/>
  <object id="113" gid="310" x="272" y="32" width="16" height="16"/>
  <object id="114" gid="310" x="272" y="48" width="16" height="16"/>
  <object id="115" gid="311" x="288" y="32" width="16" height="16">
   <properties>
    <property name="trigger" value="bulletCollision"/>
   </properties>
  </object>
  <object id="116" gid="311" x="288" y="48" width="16" height="16">
   <properties>
    <property name="trigger" value="bulletCollision"/>
   </properties>
  </object>
 </objectgroup>
</map>
