<?xml version="1.0" encoding="UTF-8"?>
<map version="1.9" tiledversion="1.9.2" orientation="orthogonal" renderorder="right-down" width="25" height="40" tilewidth="16" tileheight="16" infinite="0" nextlayerid="13" nextobjectid="90">
 <tileset firstgid="1" name="tileset" tilewidth="16" tileheight="16" tilecount="256" columns="16">
  <image source="../assets/tileset.png" width="256" height="256"/>
 </tileset>
 <tileset firstgid="257" name="tiles" tilewidth="16" tileheight="16" tilecount="72" columns="6">
  <image source="../assets/tiles.png" width="96" height="192"/>
 </tileset>
 <tileset firstgid="329" name="platforms" tilewidth="48" tileheight="16" tilecount="7" columns="0">
  <grid orientation="orthogonal" width="1" height="1"/>
  <tile id="0">
   <image width="48" height="16" source="../assets/platforms/0.png"/>
  </tile>
  <tile id="1">
   <image width="48" height="16" source="../assets/platforms/1.png"/>
  </tile>
  <tile id="2">
   <image width="48" height="16" source="../assets/platforms/2.png"/>
  </tile>
  <tile id="3">
   <image width="24" height="16" source="../assets/platforms/3.png"/>
  </tile>
  <tile id="4">
   <image width="24" height="16" source="../assets/platforms/4.png"/>
  </tile>
  <tile id="7">
   <image width="16" height="16" source="../assets/platforms/5.png"/>
  </tile>
  <tile id="8">
   <image width="16" height="16" source="../assets/platforms/6.png"/>
  </tile>
 </tileset>
 <tileset firstgid="338" name="liquid" tilewidth="16" tileheight="16" tilecount="8" columns="0">
  <grid orientation="orthogonal" width="1" height="1"/>
  <tile id="0">
   <image width="16" height="16" source="../assets/liquids/dirty_water.png"/>
  </tile>
  <tile id="1">
   <image width="16" height="16" source="../assets/liquids/dirty_water_top.png"/>
  </tile>
  <tile id="2">
   <image width="16" height="16" source="../assets/liquids/lava.png"/>
  </tile>
  <tile id="3">
   <image width="16" height="16" source="../assets/liquids/lava_top.png"/>
  </tile>
  <tile id="4">
   <image width="16" height="16" source="../assets/liquids/slime.png"/>
  </tile>
  <tile id="5">
   <image width="16" height="16" source="../assets/liquids/slime_top.png"/>
  </tile>
  <tile id="6">
   <image width="16" height="16" source="../assets/liquids/water.png"/>
  </tile>
  <tile id="7">
   <image width="16" height="16" source="../assets/liquids/water_top.png"/>
  </tile>
 </tileset>
 <tileset firstgid="346" name="lasers" tilewidth="8" tileheight="48" tilecount="1" columns="0">
  <grid orientation="orthogonal" width="1" height="1"/>
  <tile id="0">
   <image width="8" height="48" source="../assets/lasers/0.png"/>
  </tile>
 </tileset>
 <tileset firstgid="347" name="ladder" tilewidth="16" tileheight="16" tilecount="1" columns="0">
  <grid orientation="orthogonal" width="1" height="1"/>
  <tile id="0">
   <image width="16" height="16" source="../assets/ladder.png"/>
  </tile>
 </tileset>
 <tileset firstgid="348" name="crates" tilewidth="24" tileheight="24" tilecount="8" columns="0">
  <grid orientation="orthogonal" width="1" height="1"/>
  <tile id="0">
   <image width="24" height="24" source="../assets/crates/blue_crate.png"/>
  </tile>
  <tile id="1">
   <image width="16" height="16" source="../assets/crates/blue_small_crate.png"/>
  </tile>
  <tile id="2">
   <image width="24" height="24" source="../assets/crates/green_crate.png"/>
  </tile>
  <tile id="3">
   <image width="16" height="16" source="../assets/crates/green_small_crate.png"/>
  </tile>
  <tile id="4">
   <image width="24" height="24" source="../assets/crates/grey_crate.png"/>
  </tile>
  <tile id="5">
   <image width="16" height="16" source="../assets/crates/grey_small_crate.png"/>
  </tile>
  <tile id="6">
   <image width="24" height="24" source="../assets/crates/red_crate.png"/>
  </tile>
  <tile id="7">
   <image width="16" height="16" source="../assets/crates/red_small_crate.png"/>
  </tile>
 </tileset>
 <tileset firstgid="356" name="buttons" tilewidth="16" tileheight="16" tilecount="2" columns="0">
  <grid orientation="orthogonal" width="1" height="1"/>
  <tile id="0">
   <image width="16" height="16" source="../assets/triggers/button-0.png"/>
  </tile>
  <tile id="1">
   <image width="16" height="16" source="../assets/triggers/on.png"/>
  </tile>
 </tileset>
 <tileset firstgid="358" name="barriers" tilewidth="12" tileheight="48" tilecount="1" columns="0">
  <grid orientation="orthogonal" width="1" height="1"/>
  <tile id="0">
   <image width="12" height="48" source="../assets/barriers/0.png"/>
  </tile>
 </tileset>
 <tileset firstgid="359" name="barrel" tilewidth="16" tileheight="20" tilecount="1" columns="0">
  <grid orientation="orthogonal" width="1" height="1"/>
  <tile id="0">
   <image width="16" height="20" source="../assets/barrel.png"/>
  </tile>
 </tileset>
 <tileset firstgid="360" name="door" tilewidth="48" tileheight="40" tilecount="1" columns="1">
  <image source="../assets/door.png" width="48" height="40"/>
 </tileset>
 <layer id="1" name="Background" width="25" height="40">
  <data encoding="csv">
285,285,285,285,285,285,285,285,285,285,285,285,285,285,285,285,285,285,285,285,285,285,285,285,285,
26,26,26,26,26,26,26,26,26,26,26,26,26,26,26,26,26,26,26,26,26,26,26,26,26,
26,26,26,26,26,26,26,26,26,26,26,26,26,26,26,26,26,26,26,26,26,26,26,26,26,
16,16,16,16,16,16,16,16,16,16,16,16,16,16,16,16,16,16,16,16,16,16,16,16,16,
16,16,16,16,16,16,16,16,16,16,16,16,16,16,16,16,16,16,16,16,16,16,16,16,16,
16,16,16,16,16,16,16,16,16,16,16,16,16,16,16,16,16,16,16,16,16,16,16,16,16,
4,4,4,4,4,4,4,4,4,4,4,4,4,4,4,4,4,4,4,4,4,4,4,4,4,
4,4,4,4,4,4,4,4,4,4,4,4,4,4,4,4,4,4,4,4,4,4,4,4,4,
133,133,133,133,133,133,133,133,133,133,133,133,133,133,133,133,133,133,133,133,133,133,133,133,133,
133,133,133,133,133,133,133,133,133,133,133,133,133,133,133,133,133,133,133,133,133,133,133,133,133,
133,133,133,133,133,133,133,133,133,133,133,133,133,133,133,133,133,133,133,133,133,133,133,133,133,
185,185,185,185,185,185,185,185,185,185,185,185,185,185,185,185,185,185,185,185,185,185,185,185,185,
185,185,185,185,185,185,185,185,185,185,185,185,185,185,185,185,185,185,186,187,188,189,190,191,192,
208,208,208,208,208,208,208,208,208,208,208,208,208,208,208,208,208,201,202,203,204,205,206,207,208,
217,218,218,217,218,217,218,217,218,217,218,217,218,217,218,217,218,217,218,219,220,221,222,223,224,
233,234,234,233,234,233,234,233,234,233,234,233,234,233,234,233,234,233,234,235,236,237,238,239,240,
10,10,10,10,10,10,10,10,10,10,10,10,285,285,285,285,285,285,285,285,285,285,285,285,285,
10,10,10,10,10,10,10,10,10,10,10,10,10,10,10,10,10,10,10,10,10,10,10,10,10,
10,10,10,10,10,10,10,10,10,10,10,10,10,10,10,10,10,10,10,10,10,10,10,10,10,
10,10,10,10,10,10,10,10,10,10,10,10,10,10,10,10,10,10,10,10,10,10,10,10,10,
10,10,10,10,10,10,10,10,10,10,10,10,10,10,10,10,10,10,10,10,10,10,10,10,10,
47,48,47,48,47,48,47,48,285,285,285,285,285,285,285,285,285,285,285,285,285,285,285,285,285,
63,64,63,64,63,64,63,64,285,285,285,285,285,285,285,285,285,285,285,285,285,285,285,285,285,
71,72,12,13,14,12,13,14,12,13,14,12,13,14,12,13,14,12,13,14,12,13,14,71,72,
87,88,28,29,30,28,29,30,28,29,30,28,29,30,28,29,30,28,29,30,28,29,30,87,88,
103,104,34,35,36,34,35,36,34,35,36,34,35,36,34,35,36,34,35,36,34,35,36,103,104,
119,120,50,51,52,50,51,52,50,51,52,50,51,52,50,51,52,50,51,52,50,51,52,119,120,
192,192,192,192,192,192,192,192,192,192,192,192,192,192,192,192,192,192,192,192,192,192,192,192,192,
192,192,192,192,192,192,192,192,192,192,192,192,192,192,192,192,192,192,192,192,192,192,192,192,192,
26,26,26,26,26,26,26,26,26,26,26,26,26,26,26,26,26,26,26,26,26,26,26,26,26,
26,26,26,26,26,26,26,26,26,26,26,26,26,26,26,26,26,26,26,26,26,26,26,26,26,
285,285,285,47,48,47,48,285,285,285,285,285,285,285,285,285,285,47,48,47,48,285,285,285,285,
285,285,285,63,64,63,64,285,285,285,285,285,285,285,285,285,285,63,64,63,64,285,285,285,285,
138,139,140,141,142,138,139,140,141,142,138,139,140,141,142,138,139,140,141,142,138,139,140,141,142,
154,155,156,157,158,154,155,156,157,158,154,155,156,157,158,154,155,156,157,158,154,155,156,157,158,
48,47,48,47,48,47,48,47,48,47,48,47,48,47,48,47,48,47,48,47,48,47,48,47,48,
64,63,64,63,64,63,64,63,64,63,64,63,64,63,64,63,64,63,64,63,64,63,64,63,64,
185,185,185,185,185,185,185,185,185,185,185,185,185,185,185,185,185,185,185,185,185,185,185,185,185,
192,192,192,192,192,192,192,192,192,192,192,192,192,192,192,192,192,192,192,192,192,192,192,192,192,
285,285,285,285,285,285,285,285,285,285,285,285,285,285,285,285,285,285,285,285,285,285,285,285,285
</data>
 </layer>
 <layer id="2" name="Platforms" width="25" height="40">
  <data encoding="csv">
327,327,327,327,327,291,291,291,291,291,291,291,324,324,324,324,324,327,327,291,291,291,291,291,291,
0,0,0,0,0,0,0,0,0,0,0,0,0,0,0,0,0,0,0,0,0,0,0,0,0,
0,0,0,0,0,0,0,0,0,0,0,0,0,0,0,0,0,0,0,0,0,0,0,0,0,
0,0,0,0,0,0,0,0,0,0,0,0,0,0,0,0,0,0,0,0,0,0,0,0,0,
0,0,0,0,0,0,0,0,260,261,261,261,297,258,261,261,261,297,258,258,297,258,258,258,280,
0,0,0,0,0,0,0,0,269,288,288,288,288,288,291,291,288,288,288,288,288,288,327,327,274,
0,0,0,0,0,0,0,0,0,0,0,0,0,0,0,0,0,0,0,0,0,0,0,0,0,
0,0,0,0,0,0,0,0,0,0,0,0,0,0,0,0,0,0,0,0,0,0,0,0,0,
0,0,0,0,0,0,0,0,0,0,0,0,0,0,0,0,0,0,0,0,0,0,0,0,0,
0,0,0,0,0,0,0,0,0,311,261,261,261,0,0,0,0,261,261,261,261,261,261,261,262,
0,0,0,0,0,0,0,0,0,263,285,285,285,0,0,0,0,285,285,285,285,285,285,285,286,
0,0,0,0,0,0,0,0,0,269,288,288,288,288,288,288,288,288,288,288,288,288,288,288,328,
0,0,0,0,0,0,0,0,0,0,0,0,0,0,0,0,0,0,0,0,0,0,0,0,0,
0,0,0,0,0,0,0,0,0,0,0,0,0,0,0,0,0,0,0,0,0,0,0,0,0,
0,0,0,0,0,0,0,0,0,0,0,0,0,0,0,0,0,0,0,0,0,0,0,0,0,
0,0,0,0,0,0,0,0,0,0,0,0,0,0,0,0,0,0,0,0,0,0,0,0,0,
0,0,0,0,0,0,0,0,0,0,0,260,297,258,261,261,261,297,258,258,297,258,258,258,280,
0,0,0,0,0,0,0,0,0,0,0,269,288,288,291,291,288,288,288,288,288,288,327,327,274,
0,0,0,0,0,0,0,0,0,0,0,0,0,0,0,0,0,0,0,0,0,0,0,0,0,
0,0,0,0,0,0,0,0,0,0,0,0,0,0,0,0,0,0,0,0,0,0,0,0,0,
0,0,0,0,0,0,0,0,0,0,0,0,0,0,0,0,0,0,0,0,0,0,0,0,0,
0,0,0,0,0,0,0,0,260,261,261,261,297,258,261,261,261,297,258,258,297,258,258,258,280,
0,0,0,0,0,0,0,0,269,288,288,288,288,288,291,291,288,288,288,288,288,288,327,327,274,
0,0,0,0,0,0,0,0,0,0,0,0,0,0,0,0,0,0,0,0,0,0,0,0,0,
0,0,0,0,0,0,0,0,0,0,0,0,0,0,0,0,0,0,0,0,0,0,0,0,0,
0,0,0,0,0,0,0,0,0,0,0,0,0,0,0,0,0,0,0,0,0,0,0,0,0,
0,0,0,0,0,0,0,0,0,0,0,0,0,0,0,0,0,0,0,0,0,0,0,0,0,
0,0,0,0,0,0,0,0,0,0,0,0,0,0,0,0,0,0,0,0,0,0,0,0,0,
0,0,0,0,0,0,0,0,0,0,0,0,0,0,0,0,0,0,0,0,0,0,0,0,0,
0,0,0,0,0,0,0,0,0,0,0,0,0,0,0,0,0,0,0,0,0,0,0,0,0,
0,0,0,0,0,0,0,0,0,0,0,0,0,0,0,0,0,0,0,0,0,0,0,0,0,
261,261,262,0,0,0,0,260,261,297,258,258,297,258,258,258,280,0,0,0,0,260,261,261,262,
288,288,274,0,0,0,0,269,288,288,288,288,288,288,327,327,274,0,0,0,0,269,288,288,274,
0,0,0,0,0,0,0,0,0,0,0,0,0,0,0,0,0,0,0,0,0,0,0,0,0,
0,0,0,0,0,0,0,0,0,0,0,0,0,0,0,0,0,0,0,0,0,0,0,0,0,
261,261,261,261,261,261,261,262,0,0,0,0,0,0,0,0,0,0,0,0,0,0,0,0,0,
291,291,291,291,288,288,288,0,0,0,0,0,0,0,0,0,0,0,0,0,0,0,0,0,0,
0,0,0,0,0,0,0,0,0,0,0,0,0,0,0,0,0,0,0,0,0,0,0,0,0,
0,0,0,0,0,0,0,0,0,0,0,0,0,0,0,0,0,0,0,0,0,0,0,0,0,
261,261,261,261,261,261,261,261,261,261,261,261,261,261,261,261,261,261,261,261,261,261,261,261,261
</data>
 </layer>
 <layer id="3" name="Doors" width="25" height="40">
  <data encoding="csv">
0,0,0,0,0,0,0,0,0,0,0,0,0,0,0,0,0,0,0,0,0,0,0,0,0,
0,0,0,0,0,0,0,0,0,0,0,0,0,0,0,0,0,0,0,0,0,0,0,0,0,
0,0,0,0,0,0,0,0,0,0,0,0,0,0,0,0,0,0,0,0,0,0,0,0,0,
0,0,0,0,0,0,0,0,0,0,0,0,0,0,0,0,0,0,0,0,0,0,0,0,0,
0,0,0,0,0,0,0,0,0,0,0,0,0,0,0,0,0,0,0,0,0,0,0,0,0,
0,0,0,0,0,0,0,0,0,0,0,0,0,0,0,0,0,0,0,0,0,0,0,0,0,
0,0,0,0,0,0,0,0,0,0,0,0,0,0,0,0,0,0,0,0,0,0,0,0,0,
0,0,0,0,0,0,0,0,0,0,0,0,0,0,0,0,0,0,0,0,0,0,0,0,0,
0,0,0,0,0,0,0,0,0,0,0,0,0,0,0,0,0,0,0,0,0,0,0,0,0,
0,0,0,0,0,0,0,0,0,0,0,0,0,0,0,0,0,0,0,0,0,0,0,0,0,
0,0,0,0,0,0,0,0,0,0,0,0,0,0,0,0,0,0,0,0,0,0,0,0,0,
0,0,0,0,0,0,0,0,0,0,0,0,0,0,0,0,0,0,0,0,0,0,0,0,0,
0,0,0,0,0,0,0,0,0,0,0,0,0,0,0,0,0,0,0,0,0,0,0,0,0,
0,0,0,0,0,0,0,0,0,0,0,0,0,0,0,0,0,0,0,0,0,0,0,0,0,
0,0,0,0,0,0,0,0,0,0,0,0,0,0,0,0,0,0,0,0,0,0,0,0,0,
0,0,0,0,0,0,0,0,0,0,0,0,0,0,0,0,0,0,0,0,0,0,0,0,0,
0,0,0,0,0,0,0,0,0,0,0,0,0,0,0,0,0,0,0,0,0,0,0,0,0,
0,0,0,0,0,0,0,0,0,0,0,0,0,0,0,0,0,0,0,0,0,0,0,0,0,
0,0,0,0,0,0,0,0,0,0,0,0,0,0,0,0,0,0,0,0,0,0,0,0,0,
0,0,0,0,0,0,0,0,0,0,0,0,0,0,0,0,0,0,0,0,0,0,0,0,0,
0,0,0,0,0,0,0,0,0,0,0,0,0,0,0,0,0,0,0,0,0,0,0,0,0,
0,0,0,0,0,0,0,0,0,0,0,0,0,0,0,0,0,0,0,0,0,0,0,0,0,
0,0,0,0,0,0,0,0,0,0,0,0,0,0,0,0,0,0,0,0,0,0,0,0,0,
0,0,0,0,0,0,0,0,0,0,0,0,0,0,0,0,0,0,0,0,0,0,0,0,0,
0,0,0,0,0,0,0,0,0,0,0,0,0,0,0,0,0,0,0,0,0,0,0,0,0,
0,0,0,0,0,0,0,0,0,0,0,0,0,0,0,0,0,0,0,0,0,0,0,0,0,
0,0,0,0,0,0,0,0,0,0,0,0,0,0,0,0,0,0,0,0,0,0,0,0,0,
0,0,0,0,0,0,0,0,0,0,0,0,0,0,0,0,0,0,0,0,0,0,0,0,0,
0,0,0,0,0,0,0,0,0,0,0,0,0,0,0,0,0,0,0,0,0,0,0,0,0,
0,0,0,0,0,0,0,0,0,0,0,0,0,0,0,0,0,0,0,0,0,0,0,0,0,
0,0,0,0,0,0,0,0,0,0,0,0,0,0,0,0,0,0,0,0,0,0,0,0,0,
0,0,0,0,0,0,0,0,0,0,0,0,0,0,0,0,0,0,0,0,0,0,0,0,0,
0,0,0,0,0,0,0,0,0,0,0,0,0,0,0,0,0,0,0,0,0,0,0,0,0,
0,0,0,0,0,0,0,0,0,0,0,0,0,0,0,0,0,0,0,0,0,0,0,0,0,
0,0,0,0,0,0,0,0,0,0,0,0,0,0,0,0,0,0,0,0,0,0,0,0,0,
0,0,0,0,0,0,0,0,0,0,0,0,0,0,0,0,0,0,0,0,0,0,0,0,0,
0,0,0,0,0,0,0,0,0,0,0,0,0,0,0,0,0,0,0,0,0,0,0,0,0,
0,0,0,0,0,0,0,0,0,0,0,0,0,0,0,0,0,0,0,0,0,0,0,0,0,
0,0,0,0,0,0,0,0,0,0,0,0,0,0,0,0,0,0,0,0,0,360,0,0,0,
0,0,0,0,0,0,0,0,0,0,0,0,0,0,0,0,0,0,0,0,0,0,0,0,0
</data>
 </layer>
 <layer id="4" name="Ladder" width="25" height="40">
  <data encoding="csv">
0,0,0,0,0,0,0,0,0,0,0,0,0,0,0,0,0,0,0,0,0,0,0,0,0,
0,0,0,0,0,0,0,0,0,0,0,0,0,0,0,0,0,0,0,0,0,0,0,0,0,
0,0,0,0,0,0,0,0,0,0,0,0,0,0,0,0,0,0,0,0,0,0,0,0,0,
0,0,0,0,0,0,0,0,0,0,0,0,0,0,0,0,0,0,0,0,0,0,0,0,0,
0,0,0,0,0,0,0,0,0,0,0,0,0,0,0,0,0,0,0,0,0,0,0,0,0,
0,0,0,0,0,0,0,0,0,0,0,0,0,0,0,0,0,0,0,0,0,0,0,0,0,
0,0,0,0,0,0,0,0,347,0,0,0,0,0,0,0,0,0,0,0,0,0,0,0,0,
0,0,0,0,0,0,0,0,347,0,0,0,0,0,0,0,0,0,0,0,0,0,0,0,0,
0,0,0,0,0,0,0,0,347,0,0,0,0,0,0,0,0,0,0,0,0,0,0,0,0,
0,0,0,0,0,0,0,0,347,0,0,0,0,0,0,0,0,0,0,0,0,0,0,0,0,
0,0,0,0,0,0,0,0,347,0,0,0,0,0,0,0,0,0,0,0,0,0,0,0,0,
0,0,0,0,0,0,0,0,347,0,0,0,0,0,0,0,0,0,0,0,0,0,0,0,0,
0,0,0,0,0,0,0,0,347,0,0,0,0,0,0,0,0,0,0,0,0,0,0,0,0,
0,0,0,0,0,0,0,0,347,0,0,0,0,0,0,0,0,0,0,0,0,0,0,0,0,
0,0,0,0,0,0,0,0,347,0,0,0,0,0,0,0,0,0,0,0,0,0,0,0,0,
0,0,0,0,0,0,0,0,347,0,0,0,0,0,0,0,0,0,0,0,0,0,0,0,0,
0,0,0,0,0,0,0,0,347,0,0,0,0,0,0,0,0,0,0,0,0,0,0,0,0,
0,0,0,0,0,0,0,0,347,0,0,0,0,0,0,0,0,0,0,0,0,0,0,0,0,
0,0,0,0,0,0,0,0,347,0,0,0,0,0,0,0,0,0,0,0,0,0,0,0,0,
0,0,0,0,0,0,0,0,347,0,0,0,0,0,0,0,0,0,0,0,0,0,0,0,0,
0,0,0,0,0,0,0,0,347,0,0,0,0,0,0,0,0,0,0,0,0,0,0,0,0,
0,0,0,0,0,0,0,0,0,0,0,0,0,0,0,0,0,0,0,0,0,0,0,0,0,
0,0,0,0,0,0,0,0,0,0,0,0,0,0,0,0,0,0,0,0,0,0,0,0,0,
0,0,0,0,0,0,0,0,0,0,0,0,0,0,0,0,0,0,0,0,0,0,0,0,0,
0,0,0,0,0,0,0,0,0,0,0,0,0,0,0,0,0,0,0,0,0,0,0,0,0,
0,0,0,0,0,0,0,0,0,0,0,0,0,0,0,0,0,0,0,0,0,0,0,0,0,
0,0,0,0,0,0,0,0,0,0,0,0,0,0,0,0,0,0,0,0,0,0,0,0,0,
0,0,0,0,0,0,0,0,0,0,0,0,0,0,0,0,0,0,0,0,0,0,0,0,0,
0,0,0,0,0,0,0,0,0,0,0,0,0,0,0,0,0,0,0,0,0,0,0,0,0,
0,0,0,0,0,0,0,0,0,0,0,0,0,0,0,0,0,0,0,0,0,0,0,0,0,
0,0,0,0,0,0,0,0,0,0,0,0,0,0,0,0,0,0,0,0,0,0,0,0,0,
0,0,0,0,0,0,0,0,0,0,0,0,0,0,0,0,0,0,0,0,0,0,0,0,0,
0,0,0,0,0,0,0,0,0,0,0,0,0,0,0,0,0,0,0,0,0,0,0,0,0,
0,0,0,0,0,0,0,0,0,0,0,0,0,0,0,0,0,0,0,0,0,0,0,0,0,
0,0,0,0,0,0,0,0,0,0,0,0,0,0,0,0,0,0,0,0,0,0,0,0,0,
0,0,0,0,0,0,0,0,0,0,0,0,0,0,0,0,0,0,0,0,0,0,0,0,0,
0,0,0,0,0,0,0,0,0,0,0,0,0,0,0,0,0,0,0,0,0,0,0,0,0,
0,0,0,0,0,0,0,0,0,0,0,0,0,0,0,0,0,0,0,0,0,0,0,0,0,
0,0,0,0,0,0,0,0,0,0,0,0,0,0,0,0,0,0,0,0,0,0,0,0,0,
0,0,0,0,0,0,0,0,0,0,0,0,0,0,0,0,0,0,0,0,0,0,0,0,0
</data>
 </layer>
 <objectgroup id="5" name="Liquid">
  <object id="48" gid="341" x="240" y="160" width="16" height="16"/>
  <object id="49" gid="341" x="256" y="160" width="16" height="16"/>
  <object id="50" gid="341" x="224" y="160" width="16" height="16"/>
  <object id="51" gid="341" x="208" y="160" width="16" height="16"/>
  <object id="52" gid="340" x="256" y="176" width="16" height="16"/>
  <object id="53" gid="340" x="240" y="176" width="16" height="16"/>
  <object id="54" gid="340" x="224" y="176" width="16" height="16"/>
  <object id="55" gid="340" x="208" y="176" width="16" height="16"/>
 </objectgroup>
 <objectgroup id="6" name="Doors">
  <object id="1" x="335.375" y="584.034" width="49.25" height="39.75">
   <properties>
    <property name="Destiny" value="map2"/>
    <property name="DestinyDoor" value="door_upper_left"/>
    <property name="Id" value="door_right"/>
    <property name="Origin" value="map3"/>
   </properties>
  </object>
 </objectgroup>
 <objectgroup id="7" name="Enemies">
  <object id="45" x="352.667" y="327.333">
   <properties>
    <property name="Type" value="guard"/>
   </properties>
   <point/>
  </object>
  <object id="88" x="208" y="445.333">
   <properties>
    <property name="Type" value="guard"/>
   </properties>
   <point/>
  </object>
 </objectgroup>
 <objectgroup id="8" name="Objects">
  <object id="56" gid="351" x="208" y="624" width="16" height="16"/>
  <object id="57" gid="354" x="176" y="624" width="24" height="24"/>
  <object id="58" gid="348" x="0" y="624" width="24" height="24"/>
  <object id="59" gid="353" x="192" y="496" width="16" height="16"/>
  <object id="61" gid="349" x="240" y="256" width="16" height="16"/>
  <object id="84" gid="351" x="144" y="448" width="16" height="16"/>
  <object id="87" gid="354" x="256" y="256" width="24" height="24"/>
 </objectgroup>
 <objectgroup id="9" name="Barrels">
  <object id="62" gid="359" x="320" y="144" width="16" height="20"/>
  <object id="63" gid="359" x="336" y="144" width="16" height="20"/>
  <object id="64" gid="359" x="272" y="448" width="16" height="20"/>
  <object id="65" gid="359" x="256" y="624" width="16" height="20"/>
 </objectgroup>
 <objectgroup id="10" name="Platforms">
  <object id="19" gid="333" x="336" y="464" width="24" height="16"/>
  <object id="23" gid="330" x="288" y="464" width="48" height="16"/>
  <object id="24" gid="330" x="240" y="464" width="48" height="16"/>
  <object id="25" gid="330" x="192" y="464" width="48" height="16"/>
  <object id="26" gid="330" x="144" y="464" width="48" height="16"/>
  <object id="27" gid="330" x="96" y="464" width="48" height="16"/>
  <object id="28" gid="330" x="48" y="464" width="48" height="16"/>
  <object id="37" gid="336" x="32" y="464" width="16" height="16"/>
  <object id="38" x="176" y="400" width="48" height="16">
   <properties>
    <property name="stop" value="1"/>
   </properties>
  </object>
  <object id="39" x="48" y="400" width="48" height="16">
   <properties>
    <property name="stop" value="2"/>
   </properties>
  </object>
  <object id="40" gid="329" x="304" y="416" width="48" height="16">
   <properties>
    <property name="Pause" value="0.9"/>
    <property name="Speed" value="45"/>
    <property name="Type" value="horizontal"/>
   </properties>
  </object>
  <object id="41" gid="329" x="48" y="368" width="48" height="16">
   <properties>
    <property name="Pause" value="0.6"/>
    <property name="Speed" value="40"/>
    <property name="Type" value="elevator"/>
   </properties>
  </object>
  <object id="42" x="48" y="272" width="48" height="16">
   <properties>
    <property name="floor" value="1"/>
   </properties>
  </object>
  <object id="43" x="48" y="160" width="48" height="16">
   <properties>
    <property name="floor" value="2"/>
   </properties>
  </object>
  <object id="44" x="48" y="80" width="48" height="16">
   <properties>
    <property name="floor" value="3"/>
   </properties>
  </object>
 </objectgroup>
 <objectgroup id="11" name="Triggers">
  <object id="46" gid="358" x="272" y="336" width="12" height="48">
   <properties>
    <property name="door" value="two"/>
   </properties>
  </object>
  <object id="47" gid="357" x="0" y="560" width="16" height="16">
   <properties>
    <property name="door" value="one"/>
   </properties>
  </object>
  <object id="85" gid="346" x="112" y="624" width="8" height="48">
   <properties>
    <property name="door" value="one"/>
   </properties>
  </object>
  <object id="86" gid="356" x="384" y="224" width="16" height="16">
   <properties>
    <property name="door" value="two"/>
   </properties>
  </object>
 </objectgroup>
 <objectgroup id="12" name="Secret">
  <object id="66" gid="321" x="352" y="144" width="16" height="16"/>
  <object id="67" gid="321" x="384" y="144" width="16" height="16"/>
  <object id="68" gid="321" x="368" y="144" width="16" height="16"/>
  <object id="69" gid="321" x="384" y="128" width="16" height="16"/>
  <object id="70" gid="321" x="384" y="112" width="16" height="16"/>
  <object id="71" gid="321" x="368" y="112" width="16" height="16"/>
  <object id="72" gid="321" x="368" y="128" width="16" height="16"/>
  <object id="73" gid="321" x="352" y="128" width="16" height="16"/>
  <object id="74" gid="321" x="352" y="112" width="16" height="16"/>
  <object id="75" gid="321" x="336" y="112" width="16" height="16"/>
  <object id="76" gid="321" x="336" y="128" width="16" height="16"/>
  <object id="77" gid="321" x="320" y="128" width="16" height="16"/>
  <object id="78" gid="321" x="320" y="112" width="16" height="16"/>
  <object id="79" gid="321" x="320" y="144" width="16" height="16"/>
  <object id="80" gid="321" x="336" y="144" width="16" height="16"/>
  <object id="81" gid="321" x="304" y="144" width="16" height="16">
   <properties>
    <property name="trigger" value="playerCollision"/>
   </properties>
  </object>
  <object id="82" gid="321" x="304" y="128" width="16" height="16">
   <properties>
    <property name="trigger" value="playerCollision"/>
   </properties>
  </object>
  <object id="83" gid="321" x="304" y="112" width="16" height="16">
   <properties>
    <property name="trigger" value="playerCollision"/>
   </properties>
  </object>
 </objectgroup>
</map>
