<?xml version="1.0" encoding="UTF-8"?>
<map version="1.9" tiledversion="1.9.2" orientation="orthogonal" renderorder="right-down" width="40" height="20" tilewidth="16" tileheight="16" infinite="0" nextlayerid="11" nextobjectid="52">
 <tileset firstgid="1" name="tileset" tilewidth="16" tileheight="16" tilecount="256" columns="16">
  <image source="../assets/tileset.png" width="256" height="256"/>
 </tileset>
 <tileset firstgid="257" name="door" tilewidth="48" tileheight="40" tilecount="1" columns="1">
  <image source="../assets/door.png" width="48" height="40"/>
 </tileset>
 <tileset firstgid="258" name="crates" tilewidth="24" tileheight="24" tilecount="8" columns="0">
  <grid orientation="orthogonal" width="1" height="1"/>
  <tile id="0">
   <image width="24" height="24" source="../assets/crates/blue_crate.png"/>
  </tile>
  <tile id="1">
   <image width="16" height="16" source="../assets/crates/blue_small_crate.png"/>
  </tile>
  <tile id="2">
   <image width="24" height="24" source="../assets/crates/green_crate.png"/>
  </tile>
  <tile id="3">
   <image width="16" height="16" source="../assets/crates/green_small_crate.png"/>
  </tile>
  <tile id="4">
   <image width="24" height="24" source="../assets/crates/grey_crate.png"/>
  </tile>
  <tile id="5">
   <image width="16" height="16" source="../assets/crates/grey_small_crate.png"/>
  </tile>
  <tile id="6">
   <image width="24" height="24" source="../assets/crates/red_crate.png"/>
  </tile>
  <tile id="7">
   <image width="16" height="16" source="../assets/crates/red_small_crate.png"/>
  </tile>
 </tileset>
 <tileset firstgid="266" name="platforms" tilewidth="48" tileheight="16" tilecount="7" columns="0">
  <grid orientation="orthogonal" width="1" height="1"/>
  <tile id="0">
   <image width="48" height="16" source="../assets/platforms/0.png"/>
  </tile>
  <tile id="1">
   <image width="48" height="16" source="../assets/platforms/1.png"/>
  </tile>
  <tile id="2">
   <image width="48" height="16" source="../assets/platforms/2.png"/>
  </tile>
  <tile id="3">
   <image width="24" height="16" source="../assets/platforms/3.png"/>
  </tile>
  <tile id="4">
   <image width="24" height="16" source="../assets/platforms/4.png"/>
  </tile>
  <tile id="7">
   <image width="16" height="16" source="../assets/platforms/5.png"/>
  </tile>
  <tile id="8">
   <image width="16" height="16" source="../assets/platforms/6.png"/>
  </tile>
 </tileset>
 <tileset firstgid="275" name="ladder" tilewidth="16" tileheight="16" tilecount="1" columns="1">
  <image source="../assets/ladder.png" width="16" height="16"/>
 </tileset>
 <tileset firstgid="276" name="buttons" tilewidth="16" tileheight="16" tilecount="2" columns="0">
  <grid orientation="orthogonal" width="1" height="1"/>
  <tile id="1">
   <image width="16" height="16" source="../assets/triggers/button-0.png"/>
  </tile>
  <tile id="2">
   <image width="16" height="16" source="../assets/triggers/on.png"/>
  </tile>
 </tileset>
 <tileset firstgid="279" name="lasers" tilewidth="8" tileheight="48" tilecount="1" columns="0">
  <grid orientation="orthogonal" width="1" height="1"/>
  <tile id="0">
   <image width="8" height="48" source="../assets/lasers/0.png"/>
  </tile>
 </tileset>
 <tileset firstgid="280" name="barriers" tilewidth="12" tileheight="48" tilecount="1" columns="0">
  <grid orientation="orthogonal" width="1" height="1"/>
  <tile id="0">
   <image width="12" height="48" source="../../../Documents/Games/Quake2D/assets/barriers/0/0.png"/>
  </tile>
 </tileset>
 <layer id="1" name="Background" width="40" height="20">
  <data encoding="csv">
115,115,115,115,115,115,115,115,115,115,115,115,115,115,115,115,115,115,115,115,115,115,115,115,115,115,115,115,115,115,115,115,115,115,115,115,115,115,115,115,
115,115,115,115,115,115,115,115,115,115,115,115,115,115,115,115,115,115,115,115,115,115,115,115,115,115,115,115,115,115,115,115,115,115,115,115,115,115,115,115,
115,115,115,115,115,115,115,115,115,115,115,115,115,115,115,115,115,115,115,115,115,115,115,115,115,115,115,115,115,115,115,115,115,115,115,115,115,115,115,115,
115,115,115,115,115,115,115,115,115,115,115,115,115,115,115,115,115,115,115,115,115,115,115,115,115,115,115,115,115,115,115,115,115,115,115,115,115,115,115,115,
115,115,115,115,115,115,115,115,115,115,115,115,115,115,115,115,115,115,115,115,115,115,115,115,115,115,115,115,115,115,115,115,115,115,115,115,115,115,115,115,
115,115,115,115,115,115,115,115,115,115,115,115,115,115,115,115,115,115,115,115,115,115,115,115,115,115,115,115,115,115,115,115,115,115,115,115,115,115,115,115,
118,118,118,118,118,118,118,118,118,118,118,118,118,118,118,118,118,118,118,118,118,118,118,118,118,118,118,118,118,118,118,118,118,118,118,118,118,118,118,118,
118,118,118,118,118,118,118,118,118,118,118,118,118,118,118,118,118,118,118,118,118,118,118,118,118,118,118,118,118,118,118,118,118,118,118,118,118,118,118,118,
138,139,140,141,142,138,139,140,141,142,138,139,140,141,142,138,139,140,141,142,138,139,140,141,142,138,139,140,141,142,138,139,140,141,142,138,139,140,141,142,
154,155,156,157,158,154,155,156,157,158,154,155,156,157,158,154,155,156,157,158,154,155,156,157,158,154,155,156,157,158,154,155,156,157,158,154,155,156,157,158,
185,185,185,185,185,185,185,185,185,185,185,185,185,185,185,185,185,185,185,185,185,185,185,185,185,185,185,185,185,185,185,185,185,185,185,185,185,185,185,185,
185,185,185,185,185,185,185,185,185,185,185,185,185,185,185,185,185,185,185,185,185,185,185,185,185,185,185,185,185,185,185,185,185,185,185,185,185,185,185,185,
185,185,185,185,185,185,185,185,185,185,185,185,185,185,185,185,185,185,185,185,185,185,185,185,185,185,185,185,185,185,185,185,185,185,185,185,185,185,185,185,
185,185,185,185,185,185,185,185,185,185,185,185,185,185,185,185,185,185,185,185,185,185,185,185,185,185,185,185,185,185,185,185,185,185,185,185,185,185,185,185,
185,185,185,185,185,185,185,185,185,185,185,185,185,185,185,185,185,185,185,185,185,185,185,185,185,185,185,185,185,185,185,185,185,185,185,185,185,185,185,185,
185,185,185,185,185,185,185,185,185,185,185,185,185,185,185,185,185,185,185,185,185,185,185,185,185,185,185,185,185,185,185,185,185,185,185,185,185,185,185,185,
185,185,185,185,185,185,185,185,185,185,185,185,185,185,185,185,185,185,185,185,185,185,185,185,185,185,185,185,185,185,185,185,185,185,185,185,185,185,185,185,
185,185,185,185,185,185,185,185,185,185,185,185,185,185,185,185,185,185,185,185,185,185,185,185,185,185,185,185,185,185,185,185,185,185,185,185,185,185,185,185,
185,185,185,185,185,185,185,185,185,185,185,185,185,185,185,185,185,185,185,185,185,185,185,185,185,185,185,185,185,185,185,185,185,185,185,185,185,185,185,185,
185,185,185,185,185,185,185,185,185,185,185,185,185,185,185,185,185,185,185,185,185,185,185,185,185,185,185,185,185,185,185,185,185,185,185,185,185,185,185,185
</data>
 </layer>
 <layer id="2" name="Platforms" width="40" height="20">
  <data encoding="csv">
0,0,0,0,0,0,0,0,0,0,0,0,0,0,0,0,0,0,0,0,0,0,0,0,0,0,0,0,0,0,0,0,0,0,0,0,0,111,111,111,
0,0,0,0,0,0,0,0,0,0,0,0,0,0,0,0,0,0,0,0,0,0,0,0,0,0,0,0,0,0,0,0,0,0,0,0,0,111,111,111,
0,0,0,0,0,0,0,0,0,0,0,0,0,0,0,0,0,0,0,0,0,0,0,0,0,0,0,0,0,0,0,0,0,0,0,0,0,111,111,111,
0,0,0,0,0,0,0,0,0,0,0,0,0,0,0,0,0,0,0,0,0,0,0,0,0,0,0,0,0,0,0,0,0,0,0,0,0,0,0,0,
0,0,0,0,0,0,0,0,0,0,0,0,0,0,0,0,0,0,0,0,0,0,0,0,0,0,0,0,0,0,0,0,0,0,0,0,0,0,0,0,
0,0,0,0,0,0,0,0,0,0,0,0,0,0,0,0,0,0,0,0,0,0,0,0,0,0,0,0,0,0,0,0,0,0,0,0,0,0,0,0,
0,0,0,0,0,0,0,0,0,0,0,0,0,0,0,0,0,0,0,0,0,0,0,0,0,0,0,0,0,0,0,0,0,0,0,0,0,0,0,0,
0,0,0,0,0,0,0,0,0,0,0,0,0,0,0,0,0,0,0,0,0,0,0,0,0,0,0,0,0,0,0,0,0,0,0,0,0,0,0,0,
0,0,0,0,0,0,0,0,0,0,0,0,0,0,0,0,0,0,0,0,0,0,0,0,0,0,0,0,0,0,0,0,0,0,0,0,0,0,0,0,
0,0,0,0,0,0,0,0,0,0,0,0,0,0,0,0,0,0,0,0,0,0,0,0,0,0,0,0,0,0,0,0,0,0,0,0,0,0,0,0,
0,0,0,0,0,0,0,0,0,0,0,0,0,0,0,0,0,0,0,0,0,0,0,0,0,0,0,0,0,0,0,0,0,0,0,0,0,0,0,0,
0,0,0,0,0,0,0,0,0,0,0,0,0,0,0,0,0,0,0,0,0,0,0,0,0,0,0,0,0,0,0,0,0,0,0,0,0,0,0,0,
127,127,127,127,127,0,0,0,0,0,0,0,0,0,0,0,0,0,0,0,0,0,0,127,0,127,127,127,127,0,0,0,0,0,0,0,0,0,0,0,
0,0,0,0,0,0,0,0,127,127,127,127,127,127,127,0,0,0,0,0,0,0,0,0,0,0,0,0,0,0,0,0,0,0,0,0,0,0,0,0,
0,0,0,0,0,0,0,0,0,0,0,0,0,0,0,0,0,0,0,0,0,0,0,0,0,0,0,0,0,0,0,0,0,0,0,0,0,0,0,0,
0,0,0,0,0,0,0,0,0,0,0,0,0,0,0,0,0,127,127,127,127,127,0,0,0,0,0,0,0,0,0,0,0,0,0,0,0,0,0,0,
0,0,0,0,0,0,0,0,0,0,0,0,0,0,0,0,0,111,0,0,0,0,0,0,0,0,0,0,0,0,0,0,0,0,0,0,0,0,0,0,
0,0,0,0,0,0,0,0,0,0,0,0,0,0,0,0,0,111,0,0,0,0,0,0,0,0,0,0,0,0,0,0,0,0,0,0,0,0,0,0,
127,127,127,127,127,127,127,127,127,127,127,127,127,127,127,127,127,127,127,127,127,127,127,127,127,127,127,127,127,127,127,127,127,127,127,127,127,127,127,127,
111,111,111,111,111,111,111,111,111,111,111,111,111,111,111,111,111,111,111,111,111,111,111,111,111,111,111,111,111,111,111,111,111,111,111,111,111,111,111,111
</data>
 </layer>
 <layer id="4" name="Doors" width="40" height="20">
  <data encoding="csv">
0,0,0,0,0,0,0,0,0,0,0,0,0,0,0,0,0,0,0,0,0,0,0,0,0,0,0,0,0,0,0,0,0,0,0,0,0,0,0,0,
0,0,0,0,0,0,0,0,0,0,0,0,0,0,0,0,0,0,0,0,0,0,0,0,0,0,0,0,0,0,0,0,0,0,0,0,0,0,0,0,
0,0,0,0,0,0,0,0,0,0,0,0,0,0,0,0,0,0,0,0,0,0,0,0,0,0,0,0,0,0,0,0,0,0,0,0,0,0,0,0,
0,0,0,0,0,0,0,0,0,0,0,0,0,0,0,0,0,0,0,0,0,0,0,0,0,0,0,0,0,0,0,0,0,0,0,0,0,0,0,0,
0,0,0,0,0,0,0,0,0,0,0,0,0,0,0,0,0,0,0,0,0,0,0,0,0,0,0,0,0,0,0,0,0,0,0,0,0,0,0,0,
0,0,0,0,0,0,0,0,0,0,0,0,0,0,0,0,0,0,0,0,0,0,0,0,0,0,0,0,0,0,0,0,0,0,0,0,0,0,0,0,
0,0,0,0,0,0,0,0,0,0,0,0,0,0,0,0,0,0,0,0,0,0,0,0,0,0,0,0,0,0,0,0,0,0,0,0,0,0,0,0,
0,0,0,0,0,0,0,0,0,0,0,0,0,0,0,0,0,0,0,0,0,0,0,0,0,0,0,0,0,0,0,0,0,0,0,0,0,0,0,0,
0,0,0,0,0,0,0,0,0,0,0,0,0,0,0,0,0,0,0,0,0,0,0,0,0,0,0,0,0,0,0,0,0,0,0,0,0,0,0,0,
0,0,0,0,0,0,0,0,0,0,0,0,0,0,0,0,0,0,0,0,0,0,0,0,0,0,0,0,0,0,0,0,0,0,0,0,0,0,0,0,
0,0,0,0,0,0,0,0,0,0,0,0,0,0,0,0,0,0,0,0,0,0,0,0,0,0,0,0,0,0,0,0,0,0,0,0,0,0,0,0,
0,0,0,0,0,0,0,0,0,0,0,0,0,0,0,0,0,0,0,0,0,0,0,0,0,0,0,0,0,0,0,0,0,0,0,0,0,0,0,0,
0,0,0,0,0,0,0,0,0,0,0,0,0,0,0,0,0,0,0,0,0,0,0,0,0,0,0,0,0,0,0,0,0,0,0,0,0,0,0,0,
0,0,0,0,0,0,0,0,0,0,0,0,0,0,0,0,0,0,0,0,0,0,0,0,0,0,0,0,0,0,0,0,0,0,0,0,0,0,0,0,
0,0,0,0,0,0,0,0,0,0,0,0,0,0,0,0,0,0,0,0,0,0,0,0,0,0,0,0,0,0,0,0,0,0,0,0,0,0,0,0,
0,0,0,0,0,0,0,0,0,0,0,0,0,0,0,0,0,0,0,0,0,0,0,0,0,0,0,0,0,0,0,0,0,0,0,0,0,0,0,0,
0,0,0,0,0,0,0,0,0,0,0,0,0,0,0,0,0,0,0,0,0,0,0,0,0,0,0,0,0,0,0,0,0,0,0,0,0,0,0,0,
0,0,0,0,257,0,0,0,0,0,0,0,0,0,0,0,0,0,0,0,0,0,0,0,0,0,0,0,0,0,0,0,0,0,0,0,0,0,0,0,
0,0,0,0,0,0,0,0,0,0,0,0,0,0,0,0,0,0,0,0,0,0,0,0,0,0,0,0,0,0,0,0,0,0,0,0,0,0,0,0,
0,0,0,0,0,0,0,0,0,0,0,0,0,0,0,0,0,0,0,0,0,0,0,0,0,0,0,0,0,0,0,0,0,0,0,0,0,0,0,0
</data>
 </layer>
 <layer id="9" name="Ladder" width="40" height="20">
  <data encoding="csv">
0,0,0,0,0,0,0,0,0,0,0,0,0,0,0,0,0,0,0,0,0,0,0,0,0,0,0,0,0,0,0,0,0,0,0,0,0,0,0,0,
0,0,0,0,0,0,0,0,0,0,0,0,0,0,0,0,0,0,0,0,0,0,0,0,0,0,0,0,0,0,0,0,0,0,0,0,0,0,0,0,
0,0,0,0,0,0,0,0,0,0,0,0,0,0,0,0,0,0,0,0,0,0,0,0,0,0,0,0,0,0,0,0,0,0,0,0,0,0,0,0,
0,0,0,0,0,0,0,0,0,0,0,0,0,0,0,0,0,0,0,0,0,0,0,0,0,0,0,0,0,0,0,0,0,0,0,0,0,0,0,0,
0,0,0,0,0,0,0,0,0,0,0,0,0,0,0,0,0,0,0,0,0,0,0,0,0,0,0,0,0,0,0,0,0,0,0,0,0,0,0,0,
0,0,0,0,0,0,0,0,0,0,0,0,0,0,0,0,0,0,0,0,0,0,0,0,0,0,0,0,0,0,0,0,0,0,0,0,0,0,0,0,
0,0,0,0,0,0,0,0,0,0,0,0,0,0,0,0,0,0,0,0,0,0,0,0,0,0,0,0,0,0,0,0,0,0,0,0,0,0,0,0,
0,0,0,0,0,0,0,0,0,0,0,0,0,0,0,0,0,0,0,0,0,0,0,0,0,0,0,0,0,0,0,0,0,0,0,0,0,0,0,0,
0,0,0,0,0,0,0,0,0,0,0,0,0,0,0,0,0,0,0,0,0,0,0,0,275,0,0,0,0,0,0,0,0,0,0,0,0,0,0,0,
0,0,0,0,0,0,0,0,0,0,0,0,0,0,0,0,0,0,0,0,0,0,0,0,275,0,0,0,0,0,0,0,0,0,0,0,0,0,0,0,
0,0,0,0,0,0,0,0,0,0,0,0,0,0,0,0,0,0,0,0,0,0,0,0,275,0,0,0,0,0,0,0,0,0,0,0,0,0,0,0,
0,0,0,0,0,0,0,0,0,0,0,0,0,0,0,0,0,0,0,0,0,0,0,0,275,0,0,0,0,0,0,0,0,0,0,0,0,0,0,0,
0,0,0,0,0,0,0,0,0,0,0,0,0,0,0,0,0,0,0,0,0,0,0,0,275,0,0,0,0,0,0,0,0,0,0,0,0,0,275,0,
0,0,0,0,0,0,0,0,0,0,0,0,0,0,0,0,0,0,0,0,0,0,0,0,275,0,0,0,0,0,0,0,0,0,0,0,0,0,275,0,
0,0,0,0,0,0,0,0,0,0,0,0,0,0,0,0,0,0,0,0,0,0,0,0,275,0,0,0,0,0,0,0,0,0,0,0,0,0,275,0,
0,0,0,0,0,0,0,0,0,0,0,0,0,0,0,0,0,0,0,0,0,0,0,0,275,0,0,0,0,0,0,0,0,0,0,0,0,0,275,0,
0,0,0,0,0,0,0,0,0,0,0,0,0,0,0,0,0,0,0,0,0,0,0,0,275,0,0,0,0,0,0,0,0,0,0,0,0,0,275,0,
0,0,0,0,0,0,0,0,0,0,0,0,0,0,0,0,0,0,0,0,0,0,0,0,275,0,0,0,0,0,0,0,0,0,0,0,0,0,275,0,
0,0,0,0,0,0,0,0,0,0,0,0,0,0,0,0,0,0,0,0,0,0,0,0,0,0,0,0,0,0,0,0,0,0,0,0,0,0,0,0,
0,0,0,0,0,0,0,0,0,0,0,0,0,0,0,0,0,0,0,0,0,0,0,0,0,0,0,0,0,0,0,0,0,0,0,0,0,0,0,0
</data>
 </layer>
 <objectgroup id="5" name="Doors">
  <properties>
   <property name="Destiny" value="map1"/>
   <property name="Origin" value="map2"/>
  </properties>
  <object id="4" x="63.2114" y="248.25" width="49.25" height="39.75"/>
 </objectgroup>
 <objectgroup id="6" name="Enemies">
  <object id="5" x="566.636" y="268.939">
   <properties>
    <property name="Type" value="Guard"/>
   </properties>
   <point/>
  </object>
  <object id="13" x="150" y="203">
   <properties>
    <property name="Type" value="Guard"/>
   </properties>
   <point/>
  </object>
 </objectgroup>
 <objectgroup id="7" name="Objects">
  <object id="6" gid="258" x="400" y="288" width="24" height="24"/>
  <object id="8" gid="264" x="400" y="192" width="24" height="24">
   <properties>
    <property name="Loot" value="life"/>
   </properties>
  </object>
  <object id="9" gid="263" x="208" y="208" width="16" height="16"/>
  <object id="10" gid="262" x="0" y="192" width="24" height="24"/>
  <object id="43" gid="259" x="288" y="288" width="16" height="16">
   <properties>
    <property name="Loot" value="life"/>
   </properties>
  </object>
  <object id="44" gid="260" x="288" y="240" width="24" height="24"/>
  <object id="49" gid="262" x="560" y="192" width="24" height="24"/>
 </objectgroup>
 <objectgroup id="8" name="Platforms">
  <object id="18" x="176" y="144" width="48" height="16">
   <properties>
    <property name="stop" value="1"/>
   </properties>
  </object>
  <object id="19" x="48" y="144" width="48" height="16">
   <properties>
    <property name="stop" value="2"/>
   </properties>
  </object>
  <object id="24" gid="266" x="464" y="288" width="48" height="16">
   <properties>
    <property name="Pause" value="0.9"/>
    <property name="Speed" value="40"/>
    <property name="Type" value="elevator"/>
   </properties>
  </object>
  <object id="25" x="464" y="192" width="48" height="16">
   <properties>
    <property name="floor" value="1"/>
   </properties>
  </object>
  <object id="26" x="464" y="96" width="48" height="16">
   <properties>
    <property name="floor" value="2"/>
   </properties>
  </object>
  <object id="29" gid="267" x="592" y="208" width="48" height="16"/>
  <object id="30" gid="267" x="544" y="208" width="48" height="16"/>
  <object id="31" gid="267" x="592" y="112" width="48" height="16"/>
  <object id="32" gid="267" x="544" y="112" width="48" height="16"/>
  <object id="35" gid="273" x="528" y="208" width="16" height="16"/>
  <object id="36" gid="273" x="528" y="112" width="16" height="16"/>
  <object id="39" gid="266" x="304" y="160" width="48" height="16">
   <properties>
    <property name="Pause" value="0.9"/>
    <property name="Speed" value="45"/>
    <property name="Type" value="horizontal"/>
   </properties>
  </object>
 </objectgroup>
 <objectgroup id="10" name="Triggers">
  <object id="42" gid="277" x="352" y="208" width="16" height="16">
   <properties>
    <property name="door" value="one"/>
   </properties>
  </object>
  <object id="46" gid="277" x="624" y="160" width="16" height="16">
   <properties>
    <property name="door" value="two"/>
   </properties>
  </object>
  <object id="47" gid="279" x="592" y="96" width="8" height="48">
   <properties>
    <property name="door" value="two"/>
   </properties>
  </object>
  <object id="51" gid="280" x="352" y="288" width="12" height="48">
   <properties>
    <property name="door" value="one"/>
   </properties>
  </object>
 </objectgroup>
</map>
